flaticon/constructions/engineer.svg

<svg xmlns="http://www.w3.org/2000/svg" width="32" height="32" viewBox="0 0 24 24">
    <path d="M 22.800781 19.921875 C 20.414062 18.652344 18.582031 17.945312 16.953125 17.671875 L 17.121094 17.441406 C 17.199219 17.359375 17.238281 17.238281 17.199219 17.121094 L 16.824219 15.621094 C 17.816406 14.21875 18.398438 12.464844 18.398438 10.800781 L 18.398438 9.199219 L 19.601562 9.199219 C 19.839844 9.199219 20 9.039062 20 8.800781 C 20 8.558594 19.839844 8.398438 19.601562 8.398438 L 19.199219 8.398438 L 19.199219 8 C 19.199219 4.839844 17.121094 2.160156 14 1.28125 L 14 1.199219 C 14 0.558594 13.480469 0 12.800781 0 L 11.199219 0 C 10.558594 0 10 0.519531 10 1.199219 L 10 1.28125 C 6.878906 2.160156 4.800781 4.839844 4.800781 8 L 4.800781 8.398438 L 4.398438 8.398438 C 4.160156 8.398438 4 8.558594 4 8.800781 C 4 9.039062 4.160156 9.199219 4.398438 9.199219 L 5.601562 9.199219 L 5.601562 10.800781 C 5.601562 12.464844 6.183594 14.21875 7.175781 15.621094 L 6.800781 17.121094 C 6.800781 17.199219 6.800781 17.359375 6.878906 17.441406 L 7.046875 17.671875 C 5.417969 17.945312 3.585938 18.652344 1.199219 19.921875 C 0.441406 20.28125 0 21.039062 0 21.878906 L 0 23.601562 C 0 23.839844 0.160156 24 0.398438 24 L 23.601562 24 C 23.839844 24 24 23.839844 24 23.601562 L 24 21.878906 C 24 21.078125 23.519531 20.320312 22.800781 19.921875 Z M 11.761719 19.550781 L 12.003906 19.003906 L 12.601562 20.320312 L 12.992188 21.199219 L 11.039062 21.199219 Z M 10.734375 22 L 13.261719 22 L 13.488281 23.199219 L 10.496094 23.199219 Z M 16.199219 16.398438 L 16.359375 17.121094 L 15.953125 17.679688 C 15.925781 17.703125 15.902344 17.726562 15.878906 17.761719 L 14.214844 20.0625 L 13.6875 20.789062 L 12.609375 18.363281 C 13.898438 18.203125 15.050781 17.558594 15.980469 16.628906 C 15.988281 16.617188 16 16.609375 16.011719 16.597656 C 16.011719 16.59375 16.015625 16.59375 16.015625 16.589844 C 16.078125 16.527344 16.140625 16.464844 16.199219 16.398438 Z M 15.679688 2.925781 C 15.722656 2.957031 15.765625 2.984375 15.8125 3.015625 C 16.320312 3.394531 16.792969 3.839844 17.160156 4.320312 L 15.320312 4.679688 Z M 8.679688 4.679688 L 6.839844 4.320312 C 7.207031 3.839844 7.679688 3.394531 8.1875 3.015625 C 8.234375 2.984375 8.277344 2.957031 8.320312 2.925781 Z M 5.601562 8 C 5.601562 6.9375 5.867188 5.929688 6.351562 5.054688 L 9.121094 5.601562 C 9.160156 5.601562 9.160156 5.601562 9.199219 5.601562 C 9.320312 5.601562 9.398438 5.558594 9.519531 5.519531 C 9.640625 5.441406 9.679688 5.28125 9.640625 5.160156 L 9.089844 2.488281 C 9.378906 2.347656 9.683594 2.230469 10 2.128906 L 10 3.199219 C 10 3.441406 10.160156 3.601562 10.398438 3.601562 C 10.640625 3.601562 10.800781 3.441406 10.800781 3.199219 L 10.800781 1.199219 C 10.800781 1 10.960938 0.800781 11.199219 0.800781 L 12.800781 0.800781 C 13 0.800781 13.199219 0.960938 13.199219 1.199219 L 13.199219 3.199219 C 13.199219 3.441406 13.359375 3.601562 13.601562 3.601562 C 13.839844 3.601562 14 3.441406 14 3.199219 L 14 2.128906 C 14.328125 2.230469 14.640625 2.355469 14.9375 2.5 L 14.398438 5.121094 C 14.398438 5.238281 14.441406 5.398438 14.519531 5.480469 C 14.601562 5.558594 14.679688 5.601562 14.800781 5.601562 C 14.839844 5.601562 14.839844 5.601562 14.878906 5.601562 L 17.628906 5.019531 C 18.125 5.90625 18.398438 6.921875 18.398438 8 L 18.398438 8.398438 L 5.601562 8.398438 Z M 6.398438 9.199219 L 17.601562 9.199219 L 17.601562 10.800781 C 17.601562 12.542969 17 14.09375 16.101562 15.273438 L 16.078125 15.28125 C 16.039062 15.320312 16 15.359375 15.960938 15.398438 C 15.757812 15.667969 15.546875 15.914062 15.324219 16.132812 C 14.382812 17.011719 13.257812 17.542969 12.175781 17.59375 C 12.121094 17.570312 12.0625 17.558594 12 17.558594 C 11.9375 17.558594 11.882812 17.570312 11.832031 17.59375 C 11.171875 17.566406 10.492188 17.355469 9.851562 16.996094 C 9.199219 16.621094 8.585938 16.082031 8.039062 15.398438 C 8 15.359375 7.960938 15.320312 7.921875 15.28125 L 7.898438 15.273438 C 7 14.09375 6.398438 12.542969 6.398438 10.800781 Z M 11.390625 18.363281 L 10.3125 20.789062 L 9.785156 20.0625 L 8.121094 17.761719 C 8.105469 17.746094 8.09375 17.734375 8.078125 17.722656 L 7.640625 17.121094 L 7.800781 16.398438 C 7.855469 16.457031 7.910156 16.515625 7.964844 16.570312 C 8.902344 17.53125 10.074219 18.203125 11.390625 18.363281 Z M 0.800781 21.878906 C 0.800781 21.359375 1.078125 20.878906 1.558594 20.640625 C 4.109375 19.285156 5.945312 18.605469 7.582031 18.402344 L 9.96875 21.683594 L 9.664062 23.199219 L 0.800781 23.199219 Z M 23.199219 23.199219 L 14.335938 23.199219 L 14.03125 21.683594 L 16.445312 18.367188 C 18.074219 18.613281 19.941406 19.292969 22.441406 20.601562 C 22.921875 20.878906 23.199219 21.359375 23.199219 21.878906 Z M 23.199219 23.199219"/>
</svg>

<svg xmlns="http://www.w3.org/2000/svg" width="32" height="32" viewBox="0 0 24 24">
    <path d="M22.8 19.922c-2.386-1.27-4.218-1.977-5.847-2.25l.168-.23a.32.32 0 0 0 .078-.32l-.375-1.5c.992-1.403 1.574-3.157 1.574-4.821V9.199h1.204c.238 0 .398-.16.398-.398 0-.242-.16-.403-.398-.403h-.403V8c0-3.16-2.078-5.84-5.199-6.719V1.2C14 .56 13.48 0 12.8 0h-1.6c-.641 0-1.2.52-1.2 1.2v.081C6.879 2.161 4.8 4.84 4.8 8v.398h-.402c-.238 0-.398.16-.398.403 0 .238.16.398.398.398h1.204v1.602c0 1.664.582 3.418 1.574 4.82l-.375 1.5c0 .078 0 .238.078.32l.168.23c-1.629.274-3.461.981-5.848 2.25C.441 20.282 0 21.04 0 21.88v1.723c0 .238.16.398.398.398h23.204c.238 0 .398-.16.398-.398v-1.723c0-.8-.48-1.559-1.2-1.957zm-11.038-.371l.242-.547.598 1.316.39.88H11.04zM10.734 22h2.528l.226 1.2h-2.992zm5.465-5.602l.16.723-.406.559a.38.38 0 0 0-.074.082l-1.664 2.3-.527.727-1.079-2.426c1.29-.16 2.442-.804 3.371-1.734.008-.012.02-.02.032-.031 0-.004.004-.004.004-.008.062-.063.125-.125.183-.192zm-.52-13.472c.044.031.087.058.133.09.508.379.981.824 1.348 1.304l-1.84.36zm-7 1.754l-1.84-.36c.368-.48.84-.925 1.348-1.304.047-.032.09-.059.133-.09zM5.603 8c0-1.063.265-2.07.75-2.945l2.77.547h.077c.121 0 .2-.043.32-.082a.32.32 0 0 0 .122-.36L9.09 2.488c.289-.14.594-.258.91-.36V3.2c0 .242.16.403.398.403.243 0 .403-.16.403-.403v-2a.4.4 0 0 1 .398-.398h1.602a.4.4 0 0 1 .398.398v2c0 .242.16.403.403.403.238 0 .398-.16.398-.403V2.13c.328.101.64.226.938.371l-.54 2.621c0 .117.043.277.122.36.082.078.16.12.28.12h.079l2.75-.581c.496.886.77 1.902.77 2.98v.398H5.601zm.796 1.2h11.204v1.6a7.38 7.38 0 0 1-1.5 4.473l-.024.008-.117.117c-.203.27-.414.516-.637.735-.941.879-2.066 1.41-3.148 1.46a.441.441 0 0 0-.344 0c-.66-.027-1.34-.238-1.98-.597-.653-.375-1.266-.914-1.813-1.598l-.117-.117-.024-.008a7.38 7.38 0 0 1-1.5-4.472zm4.993 9.163l-1.079 2.426-.527-.727-1.664-2.3c-.016-.016-.027-.028-.043-.04l-.437-.6.16-.724c.054.059.11.118.164.172.937.961 2.11 1.633 3.426 1.793zM.8 21.88c0-.52.277-1 .758-1.238 2.55-1.356 4.386-2.036 6.023-2.239l2.387 3.282-.305 1.515H.801zm22.398 1.32h-8.863l-.305-1.515 2.414-3.317c1.63.246 3.496.926 5.996 2.235.48.277.758.757.758 1.277zm0 0"/>
</svg>
